frontend/public/svg/logos/twitter.svg

<svg width="169" height="145" viewBox="0 0 169 145" fill="none" xmlns="http://www.w3.org/2000/svg">
<g clip-path="url(#clip0)">
<path d="M159.513 25.5728C156.909 26.2325 154.288 26.7498 151.975 27.2066C151.235 27.353 150.53 27.4913 149.88 27.6246C148.239 25.7212 146.674 23.8769 145.155 22.0857C141.65 17.9593 138.34 14.0629 134.885 10.3309C130.565 5.66503 124.66 2.71732 117.337 1.57004C95.4354 -1.85473 71.9602 12.3998 65.0007 33.3553C64.6725 34.349 64.3201 35.3348 63.9834 36.2806C63.8762 36.5799 63.7714 36.8746 63.669 37.1652L63.5876 37.1738C63.4865 37.1843 63.4137 37.1968 63.3907 37.2007C62.7738 37.0217 62.1684 36.805 61.5779 36.5521C49.3786 31.0014 39.6694 22.1894 31.8977 9.61531C31.5354 9.02854 31.1921 8.42885 30.8475 7.82895C30.2006 6.64451 29.4821 5.50042 28.696 4.40338C27.2212 2.43437 25.5266 1.44153 23.8273 1.52357C22.6886 1.58068 21.0202 2.16134 19.5435 4.60817C17.9557 7.36282 16.6007 10.2451 15.4925 13.2252C10.2327 26.5921 13.1881 39.8628 16.3497 49.9311C16.7172 51.1 17.0631 52.2978 17.5009 53.8153C17.6321 54.2832 17.7798 54.7826 17.9373 55.3247L6.43503 50.3477C6.35014 50.3109 6.25864 50.2921 6.16615 50.2922C6.07367 50.2924 5.98215 50.3114 5.89736 50.3483C5.81256 50.3852 5.73627 50.4393 5.67318 50.5069C5.61008 50.5746 5.56153 50.6544 5.53057 50.7416C3.38106 56.8488 3.47494 61.7498 5.90208 70.1655C9.3636 82.1601 16.5899 91.6704 27.98 99.2091C26.8643 99.9731 25.7694 100.738 24.6924 101.491C18.4408 105.864 12.5357 109.995 5.21033 111.315C3.11005 111.693 1.57947 112.653 0.776763 114.09C-0.0817264 115.629 -0.069911 117.628 0.810895 119.871C1.96539 122.81 3.27019 124.936 4.80012 126.374C8.36341 129.721 11.6261 132.659 15.4755 134.692C27.4287 141.004 41.1914 144.189 56.4611 144.189C58.3325 144.189 60.227 144.142 62.1444 144.047C82.0461 143.051 100.172 134.836 116.017 119.634C132.314 103.998 143.306 83.6572 148.689 59.1736C149.691 54.6173 150.815 50.915 155.318 48.178C160.461 45.0506 164.384 40.0723 166.663 33.78C167.371 31.8221 168.341 29.142 166.387 26.7484C164.413 24.3317 161.837 24.9835 159.513 25.5728ZM14.2311 119.395C15.715 118.81 17.1189 118.257 18.4788 117.684C25.8969 114.66 32.4582 109.859 37.5855 103.704C39.292 101.626 39.9332 100.156 39.7212 98.7877C39.5059 97.3963 38.4125 96.1539 36.0641 94.6325C27.5383 89.1054 21.8393 83.2778 18.1297 76.2983C16.0372 72.3603 14.0512 68.0166 13.6049 62.9159C15.3909 62.758 17.191 62.9052 18.9278 63.3511C21.7717 63.8978 24.7127 64.467 27.6886 62.7684C27.7954 62.7077 27.8837 62.6189 27.9439 62.5117C29.4534 59.8083 28.3377 57.4068 27.3447 55.2888C27.1202 54.8077 26.8944 54.325 26.6968 53.8367C21.941 42.0948 20.4315 32.1908 21.9463 22.6674C22.2415 21.0426 22.6335 19.4369 23.1204 17.859C23.2872 17.2735 23.4591 16.6697 23.6311 16.0396C24.9115 17.0376 25.9779 18.2835 26.7665 19.7026C27.0684 20.1759 27.3814 20.6648 27.7148 21.1256C35.4904 31.8436 44.1311 39.3546 54.1298 44.0875C56.3749 45.1846 58.6932 46.1255 61.0679 46.9032C63.9348 47.8096 65.6308 47.8811 66.9215 47.15C68.1902 46.428 69.0145 44.9317 69.6781 42.1383C71.3058 35.2927 74.0946 29.7448 78.2052 25.1793C87.8121 14.5099 99.4831 9.51036 112.879 10.3229C118.957 10.6911 123.868 12.8518 127.505 16.7767C131.256 20.825 135.134 25.0112 137.908 29.7067C141.489 35.7699 145.775 37.9385 151.815 36.7473C152.367 36.6709 152.926 36.6561 153.481 36.7037L153.796 36.7149C151.958 39.379 149.874 41.033 147.452 41.7563C142.24 43.3105 140.626 47.2735 139.309 51.545C138.571 53.9387 137.851 56.3836 137.153 58.7471C135.165 65.4811 133.11 72.445 130.443 79.0116C121.298 101.524 106.59 117.871 86.7245 127.594C71.4318 135.076 55.9492 136.918 40.7018 133.062C33.9776 131.362 27.4995 129.423 21.4461 127.299C17.2318 125.82 14.4621 123.57 12.56 120.055C13.1396 119.826 13.6942 119.607 14.2311 119.395Z" fill="black"/>
</g>
<defs>
<clipPath id="clip0">
<rect width="168.022" height="143.738" fill="white" transform="translate(0.131226 0.776611)"/>
</clipPath>
</defs>
</svg>

<svg xmlns="http://www.w3.org/2000/svg" width="169" height="145" fill="none" viewBox="0 0 169 145"><g clip-path="url(#a)"><path fill="#000" d="M159.513 25.573c-2.604.66-5.225 1.177-7.538 1.634-.74.146-1.445.284-2.095.418a883 883 0 0 1-4.725-5.54c-3.505-4.126-6.815-8.022-10.27-11.754-4.32-4.666-10.225-7.614-17.548-8.761C95.435-1.855 71.96 12.4 65.001 33.355c-.329.994-.68 1.98-1.018 2.926l-.314.884-.081.009c-.102.01-.174.023-.197.027a16 16 0 0 1-1.813-.649c-12.2-5.55-21.909-14.363-29.68-26.937-.363-.586-.706-1.186-1.05-1.786a33 33 0 0 0-2.152-3.426c-1.475-1.969-3.17-2.961-4.869-2.88-1.138.058-2.807.638-4.283 3.085a57 57 0 0 0-4.052 8.617c-5.26 13.367-2.304 26.638.858 36.706.367 1.169.713 2.367 1.15 3.884.132.468.28.968.437 1.51L6.435 50.348a.674.674 0 0 0-.904.394c-2.15 6.107-2.056 11.008.371 19.423C9.364 82.16 16.59 91.67 27.98 99.21a410 410 0 0 0-3.288 2.282c-6.251 4.373-12.156 8.504-19.482 9.824-2.1.378-3.63 1.338-4.433 2.775-.859 1.539-.847 3.538.034 5.781 1.154 2.939 2.46 5.065 3.99 6.503 3.562 3.347 6.825 6.285 10.675 8.318 11.953 6.312 25.715 9.497 40.985 9.497q2.808 0 5.683-.142c19.902-.996 38.028-9.211 53.873-24.413 16.297-15.636 27.289-35.977 32.672-60.46 1.002-4.557 2.126-8.259 6.629-10.996 5.143-3.127 9.066-8.106 11.345-14.398.708-1.958 1.678-4.638-.276-7.032-1.974-2.416-4.55-1.765-6.874-1.175M14.231 119.395c1.484-.585 2.888-1.138 4.248-1.711a48.9 48.9 0 0 0 19.107-13.98c1.706-2.078 2.347-3.548 2.135-4.916-.215-1.392-1.308-2.634-3.657-4.156-8.526-5.527-14.225-11.354-17.934-18.334-2.093-3.938-4.079-8.281-4.525-13.382a15.8 15.8 0 0 1 5.323.435c2.844.547 5.785 1.116 8.76-.583a.7.7 0 0 0 .256-.256c1.51-2.704.394-5.105-.6-7.223-.224-.481-.45-.964-.647-1.452-4.756-11.742-6.265-21.646-4.75-31.17a41 41 0 0 1 1.173-4.808q.253-.877.511-1.82a12.1 12.1 0 0 1 3.136 3.664c.301.473.614.962.948 1.423C35.49 31.844 44.13 39.355 54.13 44.087a54 54 0 0 0 6.938 2.816c2.867.907 4.563.978 5.853.247 1.27-.722 2.093-2.218 2.757-5.012 1.628-6.845 4.417-12.393 8.527-16.959C87.812 14.51 99.483 9.51 112.88 10.323c6.078.368 10.989 2.529 14.626 6.454 3.751 4.048 7.629 8.234 10.403 12.93 3.581 6.063 7.867 8.231 13.907 7.04a7.5 7.5 0 0 1 1.666-.043l.315.01c-1.838 2.665-3.922 4.319-6.344 5.042-5.212 1.554-6.826 5.517-8.143 9.789-.738 2.394-1.458 4.839-2.156 7.202-1.988 6.734-4.043 13.698-6.71 20.265-9.145 22.512-23.853 38.859-43.719 48.582-15.292 7.482-30.775 9.324-46.022 5.468-6.724-1.7-13.202-3.639-19.256-5.763-4.214-1.479-6.984-3.729-8.886-7.244z"/></g><defs><clipPath id="a"><path fill="#fff" d="M.131.777h168.022v143.738H.131z"/></clipPath></defs></svg>
